X: 6217
T: Carmarthenshire, The
R: hornpipe
M: 4/4
K: Dmajor
(3ABc|:"D" dfed "A7" cABc|"Bm" dcde "G" fefg|"D" (3agf "A7" ge "D" dfed|"A7" c2 a2 a2 (3ABc|
"D" dfed "A7" cABc|"Bm" dcde "G" fefg|"D" (3agf "A7" (3gfe "D" fd "A7"ec|1 "D" d2 f2 d2 (3ABc:|2 "D" d2 f2 d2 cd||
|:"A7" edcB Aceg|"D" fg"A7"ef "D" de"A7"cd|"G" B2 cd efge|"A7" ceae A3 d|
"Em" BGEd "F#m" cAFe|"G" dBGg "A7" ecAa|"G" gfed "A7" aABc|1 "D"d2 f2 d2 cd:|2 "D" d2 f2 d2 z2||

